X:10
T: Graf und Nonne (Die Nonne)
N: Q0155I
O: Mitteleuropa, Deutschland (BRD) , Nordrhein - Westfalen, Attendorn
R: Ballade, Standesunterschied, vergebliche Werbung, Liebe, Klage
M: 4/4
L: 1/8
K: F
C2 | F3CA,2C2 | F2A2A2
c2 | G3FE2F2 | G4z2
FG | A2A2A2A2 | A2c2B2
AA | G2G2G2G2 | G2d2c2
cB | A2A2G2G2 | A4z2
d2 | c3AB2c2 | A4z2

@@@ Tune index: 1720
